static/img/kroki/9a6f990ed279c3e5b0db30a53f8f77a5.svg

<?xml version="1.0" encoding="us-ascii" standalone="no"?><svg xmlns="http://www.w3.org/2000/svg" xmlns:xlink="http://www.w3.org/1999/xlink" contentStyleType="text/css" height="966px" preserveAspectRatio="none" style="width:241px;height:966px;" version="1.1" viewBox="0 0 241 966" width="241px" zoomAndPan="magnify"><defs/><g><!--class azure_network_usage--><g id="elem_azure_network_usage"><rect codeLine="23" fill="#3D176E" height="39.7891" id="azure_network_usage" rx="2.5" ry="2.5" style="stroke:#000D19;stroke-width:0.5;" width="225" x="8" y="921.12"/><ellipse cx="23" cy="941.0145" fill="#ADD1B2" rx="11" ry="11" style="stroke:#181818;stroke-width:1.0;"/><path d="M25.9688,946.6552 Q25.3906,946.952 24.75,947.0927 Q24.1094,947.2489 23.4063,947.2489 Q20.9063,947.2489 19.5781,945.6083 Q18.2656,943.952 18.2656,940.827 Q18.2656,937.702 19.5781,936.0458 Q20.9063,934.3895 23.4063,934.3895 Q24.1094,934.3895 24.75,934.5458 Q25.4063,934.702 25.9688,934.9989 L25.9688,937.7177 Q25.3438,937.1395 24.75,936.8739 Q24.1563,936.5927 23.5313,936.5927 Q22.1875,936.5927 21.5,937.6708 Q20.8125,938.7333 20.8125,940.827 Q20.8125,942.9208 21.5,943.9989 Q22.1875,945.0614 23.5313,945.0614 Q24.1563,945.0614 24.75,944.7958 Q25.3438,944.5145 25.9688,943.9364 L25.9688,946.6552 Z " fill="#000000"/><text fill="#D9B8FF" font-family="Helvetica" font-size="17" lengthAdjust="spacing" textLength="183" x="42" y="946.8998">azure_network_usage</text></g><!--class network_quota--><g id="elem_network_quota"><rect codeLine="26" fill="#3D176E" height="39.7891" id="network_quota" rx="2.5" ry="2.5" style="stroke:#000D19;stroke-width:0.5;" width="169" x="36" y="760.33"/><ellipse cx="51" cy="780.2245" fill="#ADD1B2" rx="11" ry="11" style="stroke:#181818;stroke-width:1.0;"/><path d="M53.9688,785.8652 Q53.3906,786.162 52.75,786.3027 Q52.1094,786.4589 51.4063,786.4589 Q48.9063,786.4589 47.5781,784.8183 Q46.2656,783.162 46.2656,780.037 Q46.2656,776.912 47.5781,775.2558 Q48.9063,773.5995 51.4063,773.5995 Q52.1094,773.5995 52.75,773.7558 Q53.4063,773.912 53.9688,774.2089 L53.9688,776.9277 Q53.3438,776.3495 52.75,776.0839 Q52.1563,775.8027 51.5313,775.8027 Q50.1875,775.8027 49.5,776.8808 Q48.8125,777.9433 48.8125,780.037 Q48.8125,782.1308 49.5,783.2089 Q50.1875,784.2714 51.5313,784.2714 Q52.1563,784.2714 52.75,784.0058 Q53.3438,783.7245 53.9688,783.1464 L53.9688,785.8652 Z " fill="#000000"/><text fill="#D9B8FF" font-family="Helvetica" font-size="17" lengthAdjust="spacing" textLength="127" x="70" y="786.1098">network_quota</text></g><!--class phantom_resource--><g id="elem_phantom_resource"><rect codeLine="29" fill="#3D176E" height="39.7891" id="phantom_resource" rx="2.5" ry="2.5" style="stroke:#000D19;stroke-width:0.5;" width="198" x="21.5" y="438.75"/><ellipse cx="36.5" cy="458.6445" fill="#ADD1B2" rx="11" ry="11" style="stroke:#181818;stroke-width:1.0;"/><path d="M39.4688,464.2852 Q38.8906,464.582 38.25,464.7227 Q37.6094,464.8789 36.9063,464.8789 Q34.4063,464.8789 33.0781,463.2383 Q31.7656,461.582 31.7656,458.457 Q31.7656,455.332 33.0781,453.6758 Q34.4063,452.0195 36.9063,452.0195 Q37.6094,452.0195 38.25,452.1758 Q38.9063,452.332 39.4688,452.6289 L39.4688,455.3477 Q38.8438,454.7695 38.25,454.5039 Q37.6563,454.2227 37.0313,454.2227 Q35.6875,454.2227 35,455.3008 Q34.3125,456.3633 34.3125,458.457 Q34.3125,460.5508 35,461.6289 Q35.6875,462.6914 37.0313,462.6914 Q37.6563,462.6914 38.25,462.4258 Q38.8438,462.1445 39.4688,461.5664 L39.4688,464.2852 Z " fill="#000000"/><text fill="#D9B8FF" font-family="Helvetica" font-size="17" lengthAdjust="spacing" textLength="156" x="55.5" y="464.5298">phantom_resource</text></g><!--class quota--><g id="elem_quota"><rect codeLine="32" fill="#3D176E" height="39.7891" id="quota" rx="2.5" ry="2.5" style="stroke:#000D19;stroke-width:0.5;" width="90" x="75.5" y="599.54"/><ellipse cx="90.5" cy="619.4345" fill="#ADD1B2" rx="11" ry="11" style="stroke:#181818;stroke-width:1.0;"/><path d="M93.4688,625.0752 Q92.8906,625.372 92.25,625.5127 Q91.6094,625.6689 90.9063,625.6689 Q88.4063,625.6689 87.0781,624.0283 Q85.7656,622.372 85.7656,619.247 Q85.7656,616.122 87.0781,614.4658 Q88.4063,612.8095 90.9063,612.8095 Q91.6094,612.8095 92.25,612.9658 Q92.9063,613.122 93.4688,613.4189 L93.4688,616.1377 Q92.8438,615.5595 92.25,615.2939 Q91.6563,615.0127 91.0313,615.0127 Q89.6875,615.0127 89,616.0908 Q88.3125,617.1533 88.3125,619.247 Q88.3125,621.3408 89,622.4189 Q89.6875,623.4814 91.0313,623.4814 Q91.6563,623.4814 92.25,623.2158 Q92.8438,622.9345 93.4688,622.3564 L93.4688,625.0752 Z " fill="#000000"/><text fill="#D9B8FF" font-family="Helvetica" font-size="17" lengthAdjust="spacing" textLength="48" x="109.5" y="625.3198">quota</text></g><!--class resource--><g id="elem_resource"><rect codeLine="35" fill="#3D176E" height="310.7578" id="resource" rx="2.5" ry="2.5" style="stroke:#000D19;stroke-width:0.5;" width="227" x="7" y="7"/><ellipse cx="75.75" cy="26.8945" fill="#ADD1B2" rx="11" ry="11" style="stroke:#181818;stroke-width:1.0;"/><path d="M78.7188,32.5352 Q78.1406,32.832 77.5,32.9727 Q76.8594,33.1289 76.1563,33.1289 Q73.6563,33.1289 72.3281,31.4883 Q71.0156,29.832 71.0156,26.707 Q71.0156,23.582 72.3281,21.9258 Q73.6563,20.2695 76.1563,20.2695 Q76.8594,20.2695 77.5,20.4258 Q78.1563,20.582 78.7188,20.8789 L78.7188,23.5977 Q78.0938,23.0195 77.5,22.7539 Q76.9063,22.4727 76.2813,22.4727 Q74.9375,22.4727 74.25,23.5508 Q73.5625,24.6133 73.5625,26.707 Q73.5625,28.8008 74.25,29.8789 Q74.9375,30.9414 76.2813,30.9414 Q76.9063,30.9414 77.5,30.6758 Q78.0938,30.3945 78.7188,29.8164 L78.7188,32.5352 Z " fill="#000000"/><text fill="#D9B8FF" font-family="Helvetica" font-size="17" lengthAdjust="spacing" textLength="71" x="101.25" y="32.7798">resource</text><line style="stroke:#000D19;stroke-width:0.5;" x1="8" x2="233" y1="46.7891" y2="46.7891"/><text fill="#D9B8FF" font-family="sans-serif" font-size="14" font-weight="bold" lengthAdjust="spacing" textLength="29" x="18" y="68.7842">age</text><text fill="#D9B8FF" font-family="sans-serif" font-size="14" lengthAdjust="spacing" textLength="66" x="47" y="68.7842">: duration</text><text fill="#D9B8FF" font-family="sans-serif" font-size="14" font-weight="bold" lengthAdjust="spacing" textLength="43" x="18" y="95.0811">atime</text><text fill="#D9B8FF" font-family="sans-serif" font-size="14" lengthAdjust="spacing" textLength="70" x="61" y="95.0811">: datetime</text><text fill="#D9B8FF" font-family="sans-serif" font-size="14" font-weight="bold" lengthAdjust="spacing" textLength="43" x="18" y="121.3779">ctime</text><text fill="#D9B8FF" font-family="sans-serif" font-size="14" lengthAdjust="spacing" textLength="70" x="61" y="121.3779">: datetime</text><text fill="#D9B8FF" font-family="sans-serif" font-size="14" font-weight="bold" lengthAdjust="spacing" textLength="14" x="18" y="147.6748">id</text><text fill="#D9B8FF" font-family="sans-serif" font-size="14" lengthAdjust="spacing" textLength="48" x="32" y="147.6748">: string</text><text fill="#D9B8FF" font-family="sans-serif" font-size="14" font-weight="bold" lengthAdjust="spacing" textLength="33" x="18" y="173.9717">kind</text><text fill="#D9B8FF" font-family="sans-serif" font-size="14" lengthAdjust="spacing" textLength="48" x="51" y="173.9717">: string</text><text fill="#D9B8FF" font-family="sans-serif" font-size="14" font-weight="bold" lengthAdjust="spacing" textLength="90" x="18" y="200.2686">last_access</text><text fill="#D9B8FF" font-family="sans-serif" font-size="14" lengthAdjust="spacing" textLength="66" x="108" y="200.2686">: duration</text><text fill="#D9B8FF" font-family="sans-serif" font-size="14" font-weight="bold" lengthAdjust="spacing" textLength="90" x="18" y="226.5654">last_update</text><text fill="#D9B8FF" font-family="sans-serif" font-size="14" lengthAdjust="spacing" textLength="66" x="108" y="226.5654">: duration</text><text fill="#D9B8FF" font-family="sans-serif" font-size="14" font-weight="bold" lengthAdjust="spacing" textLength="48" x="18" y="252.8623">mtime</text><text fill="#D9B8FF" font-family="sans-serif" font-size="14" lengthAdjust="spacing" textLength="70" x="66" y="252.8623">: datetime</text><text fill="#D9B8FF" font-family="sans-serif" font-size="14" font-weight="bold" lengthAdjust="spacing" textLength="43" x="18" y="279.1592">name</text><text fill="#D9B8FF" font-family="sans-serif" font-size="14" lengthAdjust="spacing" textLength="48" x="61" y="279.1592">: string</text><text fill="#D9B8FF" font-family="sans-serif" font-size="14" font-weight="bold" lengthAdjust="spacing" textLength="34" x="18" y="305.4561">tags</text><text fill="#D9B8FF" font-family="sans-serif" font-size="14" lengthAdjust="spacing" textLength="171" x="52" y="305.4561">: dictionary[string, string]</text></g><!--reverse link network_quota to azure_network_usage--><g id="link_network_quota_azure_network_usage"><path codeLine="47" d="M120.5,818.38 C120.5,848.9 120.5,890.23 120.5,920.79 " fill="none" id="network_quota-backto-azure_network_usage" style="stroke:#FFAF37;stroke-width:2.0;"/><polygon fill="none" points="120.5,800.38,114.5,818.38,126.5,818.38,120.5,800.38" style="stroke:#FFAF37;stroke-width:2.0;"/></g><!--reverse link quota to network_quota--><g id="link_quota_network_quota"><path codeLine="48" d="M120.5,657.59 C120.5,688.11 120.5,729.44 120.5,760 " fill="none" id="quota-backto-network_quota" style="stroke:#FFAF37;stroke-width:2.0;"/><polygon fill="none" points="120.5,639.59,114.5,657.59,126.5,657.59,120.5,639.59" style="stroke:#FFAF37;stroke-width:2.0;"/></g><!--reverse link resource to phantom_resource--><g id="link_resource_phantom_resource"><path codeLine="49" d="M120.5,335.84 C120.5,384.13 120.5,413.36 120.5,438.67 " fill="none" id="resource-backto-phantom_resource" style="stroke:#FFAF37;stroke-width:2.0;"/><polygon fill="none" points="120.5,317.84,114.5,335.84,126.5,335.84,120.5,317.84" style="stroke:#FFAF37;stroke-width:2.0;"/></g><!--reverse link phantom_resource to quota--><g id="link_phantom_resource_quota"><path codeLine="50" d="M120.5,496.8 C120.5,527.32 120.5,568.65 120.5,599.22 " fill="none" id="phantom_resource-backto-quota" style="stroke:#FFAF37;stroke-width:2.0;"/><polygon fill="none" points="120.5,478.8,114.5,496.8,126.5,496.8,120.5,478.8" style="stroke:#FFAF37;stroke-width:2.0;"/></g><!--SRC=[XPDDJyCm38Rl_HMHTfkOj85W3761IGWk235k24rUudRHrgGuBjFu-E-aP9lI3-3MlkzZlxRLBhL2WNd1Mv5Zla1oYLjfKm11Bgw8x6PgrvP4BqqXFHatpHjh-5_W7d8KjxX-GzOIciJJKikLGUV4SMHTWrnbP4kZGdicCCvRQ3YYfcjmxegPzA9aZ8PHayLvcZR9PjFUYHgDpx25ML98EsGu7AhHf8dy6_NdtWTYfjzHZEAZtLl6rfYjY1_gpoah8XgojUZU_tN61r1AcqoSHjfZc8aCKasVBK7PJKMdi7PnZ6CajBmjSDhQ2YVdAXrtmdU_mOciJYVWlIIS6-IDfTMyT92X-4YIhvszDrvBon0RnH8CstnEw6n9ibRKWYEet_S9_Vw5K2K1QsigXNKUD62idhqcEpIjAi7vRzHa_jLlMnTy5iz1Ily7D19-dBAeUZMSl2F7G90EZHcoq57BgWne-noyentpubUjd-hoSp0OT5qtYVrQJN8uKp2R9qvQDmzSAFu6]--></g></svg>

<svg xmlns="http://www.w3.org/2000/svg" width="241" height="966" viewBox="0 0 241 966"><rect width="225" height="39.789" x="8" y="921.12" fill="#3D176E" rx="2.5" ry="2.5" style="stroke:#000d19;stroke-width:.5"/><circle cx="23" cy="941.014" r="11" fill="#ADD1B2" style="stroke:#181818;stroke-width:1"/><path d="M25.969 946.655q-.578.297-1.219.438-.64.156-1.344.156-2.5 0-3.828-1.64-1.312-1.657-1.312-4.782t1.312-4.781q1.328-1.657 3.828-1.657.703 0 1.344.157.656.156 1.219.453v2.719q-.625-.578-1.219-.844-.594-.281-1.219-.281-1.343 0-2.031 1.078-.687 1.062-.687 3.156t.687 3.172q.688 1.062 2.031 1.062.625 0 1.219-.265.594-.282 1.219-.86z"/><text x="42" y="946.9" fill="#D9B8FF" font-family="Helvetica" font-size="17" textLength="183">azure_network_usage</text><rect width="169" height="39.789" x="36" y="760.33" fill="#3D176E" rx="2.5" ry="2.5" style="stroke:#000d19;stroke-width:.5"/><circle cx="51" cy="780.225" r="11" fill="#ADD1B2" style="stroke:#181818;stroke-width:1"/><path d="M53.969 785.865q-.578.297-1.219.438-.64.156-1.344.156-2.5 0-3.828-1.64-1.312-1.657-1.312-4.782t1.312-4.781q1.328-1.656 3.828-1.656.703 0 1.344.156.656.156 1.219.453v2.719q-.625-.578-1.219-.844-.594-.281-1.219-.281-1.343 0-2.031 1.078-.687 1.062-.687 3.156t.687 3.172q.688 1.062 2.031 1.062.625 0 1.219-.265.594-.281 1.219-.86z"/><text x="70" y="786.11" fill="#D9B8FF" font-family="Helvetica" font-size="17" textLength="127">network_quota</text><rect width="198" height="39.789" x="21.5" y="438.75" fill="#3D176E" rx="2.5" ry="2.5" style="stroke:#000d19;stroke-width:.5"/><circle cx="36.5" cy="458.644" r="11" fill="#ADD1B2" style="stroke:#181818;stroke-width:1"/><path d="M39.469 464.285q-.578.297-1.219.438-.64.156-1.344.156-2.5 0-3.828-1.64-1.312-1.657-1.312-4.782t1.312-4.781q1.328-1.656 3.828-1.656.703 0 1.344.156.656.156 1.219.453v2.719q-.625-.579-1.219-.844-.594-.281-1.219-.281-1.343 0-2.031 1.078-.687 1.062-.687 3.156t.687 3.172q.688 1.062 2.031 1.062.625 0 1.219-.265.594-.281 1.219-.86z"/><text x="55.5" y="464.53" fill="#D9B8FF" font-family="Helvetica" font-size="17" textLength="156">phantom_resource</text><rect width="90" height="39.789" x="75.5" y="599.54" fill="#3D176E" rx="2.5" ry="2.5" style="stroke:#000d19;stroke-width:.5"/><circle cx="90.5" cy="619.434" r="11" fill="#ADD1B2" style="stroke:#181818;stroke-width:1"/><path d="M93.469 625.075q-.578.297-1.219.438-.64.156-1.344.156-2.5 0-3.828-1.64-1.312-1.657-1.312-4.782t1.312-4.781q1.328-1.657 3.828-1.657.703 0 1.344.157.656.156 1.219.453v2.719q-.625-.579-1.219-.844-.594-.281-1.219-.281-1.344 0-2.031 1.078-.687 1.062-.687 3.156t.687 3.172q.688 1.062 2.031 1.062.625 0 1.219-.265.594-.282 1.219-.86z"/><text x="109.5" y="625.32" fill="#D9B8FF" font-family="Helvetica" font-size="17" textLength="48">quota</text><rect width="227" height="310.758" x="7" y="7" fill="#3D176E" rx="2.5" ry="2.5" style="stroke:#000d19;stroke-width:.5"/><circle cx="75.75" cy="26.895" r="11" fill="#ADD1B2" style="stroke:#181818;stroke-width:1"/><path d="M78.719 32.535q-.578.297-1.219.438-.64.156-1.344.156-2.5 0-3.828-1.64-1.312-1.657-1.312-4.782t1.312-4.781q1.328-1.656 3.828-1.656.703 0 1.344.156.656.156 1.219.453v2.719q-.625-.578-1.219-.844-.594-.281-1.219-.281-1.344 0-2.031 1.078-.687 1.062-.687 3.156t.687 3.172q.688 1.062 2.031 1.062.625 0 1.219-.265.594-.281 1.219-.86z"/><text x="101.25" y="32.78" fill="#D9B8FF" font-family="Helvetica" font-size="17" textLength="71">resource</text><path d="M8 46.789h225" style="stroke:#000d19;stroke-width:.5"/><text x="18" y="68.784" fill="#D9B8FF" font-family="sans-serif" font-size="14" font-weight="bold" textLength="29">age</text><text x="47" y="68.784" fill="#D9B8FF" font-family="sans-serif" font-size="14" textLength="66">: duration</text><text x="18" y="95.081" fill="#D9B8FF" font-family="sans-serif" font-size="14" font-weight="bold" textLength="43">atime</text><text x="61" y="95.081" fill="#D9B8FF" font-family="sans-serif" font-size="14" textLength="70">: datetime</text><text x="18" y="121.378" fill="#D9B8FF" font-family="sans-serif" font-size="14" font-weight="bold" textLength="43">ctime</text><text x="61" y="121.378" fill="#D9B8FF" font-family="sans-serif" font-size="14" textLength="70">: datetime</text><text x="18" y="147.675" fill="#D9B8FF" font-family="sans-serif" font-size="14" font-weight="bold" textLength="14">id</text><text x="32" y="147.675" fill="#D9B8FF" font-family="sans-serif" font-size="14" textLength="48">: string</text><text x="18" y="173.972" fill="#D9B8FF" font-family="sans-serif" font-size="14" font-weight="bold" textLength="33">kind</text><text x="51" y="173.972" fill="#D9B8FF" font-family="sans-serif" font-size="14" textLength="48">: string</text><text x="18" y="200.269" fill="#D9B8FF" font-family="sans-serif" font-size="14" font-weight="bold" textLength="90">last_access</text><text x="108" y="200.269" fill="#D9B8FF" font-family="sans-serif" font-size="14" textLength="66">: duration</text><text x="18" y="226.565" fill="#D9B8FF" font-family="sans-serif" font-size="14" font-weight="bold" textLength="90">last_update</text><text x="108" y="226.565" fill="#D9B8FF" font-family="sans-serif" font-size="14" textLength="66">: duration</text><text x="18" y="252.862" fill="#D9B8FF" font-family="sans-serif" font-size="14" font-weight="bold" textLength="48">mtime</text><text x="66" y="252.862" fill="#D9B8FF" font-family="sans-serif" font-size="14" textLength="70">: datetime</text><text x="18" y="279.159" fill="#D9B8FF" font-family="sans-serif" font-size="14" font-weight="bold" textLength="43">name</text><text x="61" y="279.159" fill="#D9B8FF" font-family="sans-serif" font-size="14" textLength="48">: string</text><text x="18" y="305.456" fill="#D9B8FF" font-family="sans-serif" font-size="14" font-weight="bold" textLength="34">tags</text><text x="52" y="305.456" fill="#D9B8FF" font-family="sans-serif" font-size="14" textLength="171">: dictionary[string, string]</text><path fill="none" d="M120.5 818.38v102.41m0-120.41-6 18h12zm0-142.79V760m0-120.41-6 18h12zm0-303.75v102.83m0-120.83-6 18h12zm0 178.96v102.42m0-120.42-6 18h12z" style="stroke:#ffaf37;stroke-width:2"/></svg>
